X: 11267
T: Dusty Windowsills
R: jig
M: 6/8
K: Adorian
|:A2B cBA|Aed cBA|~G3 EGG|DGG EGG|
A2B cBA|Aed efg|age dBe|1 ABA A2E:|2 ABA A2e||
|:aba age|dBd ~g3|gag afe|dBA GED|
EGG DGG|EGG ABc|Bed BAG|1 ABA A2e:|2 ABA A2E||
|:ABA gAf|ABA ged|GAG eGd|GAG edB|
ABA gAf|ABA efg|age dBe|ABA A2E:|

